Front/img/common-section_compare/illu-7.svg

<svg width="225" height="225" viewBox="0 0 225 225" fill="none" xmlns="http://www.w3.org/2000/svg">
<path d="M111.489 47C79.0841 47 52.8164 70.5543 52.8164 99.6087V159.391C52.8164 188.446 79.0841 212 111.489 212C143.893 212 170.151 188.446 170.151 159.391V99.6087C170.151 70.5543 143.883 47 111.489 47Z" fill="#E1E1E1"/>
<path d="M193.612 172.996H30.4326C24.6708 172.996 20 177.667 20 183.429V201.568C20 207.329 24.6708 212 30.4326 212H193.612C199.374 212 204.045 207.329 204.045 201.568V183.429C204.045 177.667 199.374 172.996 193.612 172.996Z" fill="#CCD2DD"/>
<path d="M38.0273 172.997L58.3393 112.555H163.39L183.953 172.997H38.0273Z" fill="#152D5D"/>
<path d="M158.471 133.66H93.5312L97.5554 119.082H154.447L158.471 133.66Z" fill="#00181B"/>
<path d="M97.293 130.973H108.239" stroke="white" stroke-miterlimit="10"/>
<path d="M111.379 130.973H122.325" stroke="white" stroke-miterlimit="10"/>
<path d="M128.48 130.973H139.426" stroke="white" stroke-miterlimit="10"/>
<path d="M142.566 130.973H153.512" stroke="white" stroke-miterlimit="10"/>
<path d="M59.6262 133.56C59.6262 133.56 58.2278 110.653 69.9381 103.771C81.6484 96.8899 74.0628 77.4231 74.0628 77.4231L76.4673 79.4351L77.4733 77.4231L79.586 79.3345L80.592 77.4231L82.6041 79.4351L83.4492 77.4231L85.8335 79.7571L86.5377 77.4231L88.7913 79.8979L89.6263 77.4231L91.7389 79.7571L92.584 77.4231L94.7269 79.9985L95.572 77.3828L97.8154 80.2802L98.6605 77.3828C101.09 81.1226 102.429 85.4651 102.529 89.9235C102.628 94.3819 101.484 98.7799 99.2239 102.624C91.3567 116.156 84.3848 115.009 86.0146 133.56H59.6262Z" fill="white"/>
<path d="M78.8828 84.0742H92.6354" stroke="#0C0D0D" stroke-miterlimit="10"/>
<path d="M94.9766 84.0742H98.6184" stroke="#0C0D0D" stroke-miterlimit="10"/>
<path d="M95.4727 96.1445H99.1145" stroke="#0C0D0D" stroke-miterlimit="10"/>
<path d="M78.8828 88.0977H87.5347" stroke="#0C0D0D" stroke-miterlimit="10"/>
<path d="M78.8828 92.1211H99.3658" stroke="#0C0D0D" stroke-miterlimit="10"/>
<path d="M78.8828 96.1445H93.1384" stroke="#0C0D0D" stroke-miterlimit="10"/>
<path d="M76.5156 100.332H87.079" stroke="#0C0D0D" stroke-miterlimit="10"/>
<path d="M90.1914 100.332H97.294" stroke="#0C0D0D" stroke-miterlimit="10"/>
<path d="M89.9492 88.0977H98.6011" stroke="#0C0D0D" stroke-miterlimit="10"/>
<path d="M91.0469 142.775L92.7974 136.336H100.363L99.0046 142.775H91.0469Z" fill="white"/>
<path d="M107.055 142.775L108 136.336H115.264L114.691 142.775H107.055Z" fill="white"/>
<path d="M123.178 136.336H131.005L131.267 142.775H123.027L123.178 136.336Z" fill="white"/>
<path d="M138.09 136.336H145.223L146.249 142.775H138.764L138.09 136.336Z" fill="white"/>
<path d="M151.992 136.336H159.195L160.956 142.775H153.36L151.992 136.336Z" fill="white"/>
<path d="M103.219 169.684L104.034 164.191H149.537L150.342 169.684H103.219Z" fill="white"/>
<path d="M90.4552 144.918L88.7852 151.055H97.2962L98.5538 144.918H90.4552Z" fill="white"/>
<path d="M106.73 144.918L105.824 151.055H113.953L114.496 144.918H106.73Z" fill="white"/>
<path d="M122.977 144.918L122.836 151.055H131.609L131.267 144.918H122.977Z" fill="white"/>
<path d="M138.914 144.918L139.528 151.055H147.556L146.58 144.918H138.914Z" fill="white"/>
<path d="M153.824 144.918L155.132 151.055H163.211L161.541 144.918H153.824Z" fill="white"/>
<path d="M88.1697 153.316L86.3789 159.866H95.4031L96.7813 153.316H88.1697Z" fill="white"/>
<path d="M105.493 153.316L104.527 159.866H113.179L113.753 153.316H105.493Z" fill="white"/>
<path d="M122.776 153.316L122.625 159.866H131.971L131.609 153.316H122.776Z" fill="white"/>
<path d="M139.75 153.316L140.394 159.866H148.945L147.909 153.316H139.75Z" fill="white"/>
<path d="M155.613 153.316L157.012 159.866H165.613L163.833 153.316H155.613Z" fill="white"/>
</svg>

<svg xmlns="http://www.w3.org/2000/svg" fill="none" viewBox="0 0 225 225"><path fill="#E1E1E1" d="M111.489 47c-32.405 0-58.673 23.554-58.673 52.609v59.782c0 29.055 26.268 52.609 58.673 52.609 32.404 0 58.662-23.554 58.662-52.609V99.609c0-29.055-26.268-52.609-58.662-52.609z"/><path fill="#CCD2DD" d="M193.612 172.996H30.432c-5.761 0-10.432 4.671-10.432 10.433v18.139C20 207.329 24.67 212 30.433 212h163.179c5.762 0 10.433-4.671 10.433-10.432v-18.139c0-5.762-4.671-10.433-10.433-10.433z"/><path fill="#152D5D" d="M38.027 172.997l20.312-60.442H163.39l20.563 60.442H38.027z"/><path fill="#00181B" d="M158.471 133.66h-64.94l4.024-14.578h56.892l4.024 14.578z"/><path stroke="#fff" stroke-miterlimit="10" d="M97.293 130.973h10.946M111.379 130.973h10.946M128.48 130.973h10.946M142.566 130.973h10.946"/><path fill="#fff" d="M59.626 133.56s-1.398-22.907 10.312-29.789c11.71-6.881 4.125-26.348 4.125-26.348l2.404 2.012 1.006-2.012 2.113 1.912 1.006-1.912 2.012 2.012.845-2.012 2.385 2.334.704-2.334 2.253 2.475.835-2.475 2.113 2.334.845-2.334L94.727 80l.845-2.616 2.243 2.897.846-2.897a24.007 24.007 0 01.563 25.241c-7.867 13.532-14.84 12.385-13.21 30.936H59.627z"/><path stroke="#0C0D0D" stroke-miterlimit="10" d="M78.883 84.074h13.752M94.977 84.074h3.641M95.473 96.144h3.642M78.883 88.098h8.652M78.883 92.121h20.483M78.883 96.144h14.255M76.516 100.332h10.563M90.191 100.332h7.103M89.95 88.098H98.6"/><path fill="#fff" d="M91.047 142.775l1.75-6.439h7.566l-1.358 6.439h-7.958zM107.055 142.775l.945-6.439h7.264l-.573 6.439h-7.636zM123.178 136.336h7.827l.262 6.439h-8.24l.151-6.439zM138.09 136.336h7.133l1.026 6.439h-7.485l-.674-6.439zM151.992 136.336h7.203l1.761 6.439h-7.596l-1.368-6.439zM103.219 169.684l.815-5.493h45.503l.805 5.493h-47.123zM90.455 144.918l-1.67 6.137h8.511l1.258-6.137h-8.099zM106.73 144.918l-.906 6.137h8.129l.543-6.137h-7.766zM122.977 144.918l-.141 6.137h8.773l-.342-6.137h-8.29zM138.914 144.918l.614 6.137h8.028l-.976-6.137h-7.666zM153.824 144.918l1.308 6.137h8.079l-1.67-6.137h-7.717zM88.17 153.316l-1.791 6.55h9.024l1.378-6.55H88.17zM105.493 153.316l-.966 6.55h8.652l.574-6.55h-8.26zM122.776 153.316l-.151 6.55h9.346l-.362-6.55h-8.833zM139.75 153.316l.644 6.55h8.551l-1.036-6.55h-8.159zM155.613 153.316l1.399 6.55h8.601l-1.78-6.55h-8.22z"/></svg>
